X: 116003
T: Mrs GRANT OF LAGAN
Q: "Strathspey."
R:  Strathspey.
%R: strathspey
B: James Kerr "Merry Melodies" v.1 p.16 s.0 #3
Z: 2017 John Chambers <jc:trillian.mit.edu>
M: C
L: 1/8
K: Am
ue |\
vd/c/B/A/ G<B A<A, A,>uB, | vC>vDuE>u^F G2(GB) |\
(3ABc (3Bcd A<A, A,>uB, | C>DE^G A2(AB) |\
(d/c/B/A/) uB>u^G vA>vE u=G>uD | (E<G) B,>A, G,2 (G,A,/B,/) |
(3CB,A, (3DCB, (3EDC (3B,CD | (3Edc (3BA^G A2-A |]\
(uc/B/) |\
vA<ue vc>uB A/B/c/B/ AE | G<B G>D B,2 G,c/B/ |\
A<e c>B A/B/c/d/ ea |
vc>vAuB>u^G A2 Ac/B/ |\
A<e d/c/B/A/ B>^G A>E | G<B G>D B,2 (G,A,/B,/) |\
(3CB,A, (3DCB, (3EDC (3B,CD | (3Edc (3BA^G A2-A |]

%%sep 1 1 500
%%sep 1 1 500

